X: 22
T: The RIBBLE
%R: hornpipe
B: Jean White "100 Popular Hornpipes, Reels, Jigs and Country Dances", Boston 1880 p.9
F: http://www.loc.gov/resource/sm1880.09124.0#seq-1
Z: 2014 John Chambers <jc:trillian.mit.edu>
M: C|
L: 1/8
K: G
% - - - - - - - - - - - - - - - - - - - - - - - - - - - - -
B>c |\
d>^cd>f g>e=c>A | G>FG>B D2E>F | G>FG>A B>AB>c | d>^cd>g A2B>=c |
d>^cd>f g>e=c>A | G>FG>B D2E>F | G>ed>c B>AG>F | G2B2 G2 :|
|: F>G |\
A>GA>B c>Bc>d | e>de>f g2g>f | e>dc>B c>BA>G | F2D2 D2 B>c |
d>^cd>f g>e=c>A | G>FG>B D2E>F | G>ed>c B>AG>F | G2B2 G2 H:|
% - - - - - - - - - - - - - - - - - - - - - - - - - - - - -

%%sep 1 1 500
%%sep 1 1 500
